svg/help_desk_log.svg

<svg width="24" height="24" viewBox="0 0 24 24" xmlns="http://www.w3.org/2000/svg">
<path d="M10.1907 18.5V17.1736H8.13445C7.29051 17.1052 6.48827 16.7892 5.83501 16.2677C5.18175 15.7462 4.70862 15.0441 4.47891 14.2554L4.28471 13.9016H3.88489C3.71759 13.8803 3.56365 13.8019 3.45079 13.6806C3.34793 13.5546 3.29163 13.399 3.29086 13.2384C3.29126 13.1221 3.32274 13.0079 3.38225 12.9068C3.44157 12.8051 3.52847 12.721 3.63357 12.6636L3.97627 12.4757V11.2156C3.99031 11.1228 4.0252 11.0342 4.0785 10.9559C4.13179 10.8776 4.20218 10.8115 4.28471 10.7624C4.34794 10.702 4.42288 10.6543 4.50522 10.6221C4.58756 10.5898 4.67567 10.5737 4.7645 10.5745H11.6186C11.7095 10.5714 11.8001 10.5864 11.8847 10.6187C11.9693 10.6509 12.0461 10.6996 12.1104 10.7619C12.1747 10.8241 12.2251 10.8984 12.2584 10.9803C12.2917 11.0622 12.3072 11.1498 12.304 11.2377V14.5538H9.44815C9.38334 14.385 9.27287 14.2361 9.12829 14.1227C8.98921 14.0059 8.819 13.9293 8.63708 13.9016C8.45145 13.88 8.26316 13.9028 8.08875 13.968C7.91684 14.035 7.76685 14.1458 7.65466 14.2885C7.54539 14.4305 7.47824 14.5987 7.46046 14.7749C7.43553 14.9519 7.46327 15.1321 7.54042 15.2944C7.61569 15.4607 7.73858 15.6026 7.89455 15.7034C8.0455 15.8076 8.22356 15.8689 8.40861 15.8803H13.6292C13.9918 15.8774 14.3388 15.7367 14.5952 15.4886C14.8516 15.2404 14.997 14.9047 15 14.5538V13.2274C15.0002 13.0521 14.9639 12.8785 14.8933 12.7171C14.8226 12.5556 14.719 12.4096 14.5888 12.2878C14.464 12.1641 14.3147 12.066 14.1498 11.9995C13.9849 11.933 13.8078 11.8995 13.6292 11.9009V10.5745C13.5647 9.20775 12.9583 7.91766 11.9359 6.97253C10.9136 6.02741 9.55409 5.5 8.14016 5.5C6.72623 5.5 5.36672 6.02741 4.34439 6.97253C3.32206 7.91766 2.7156 9.20775 2.65114 10.5745V11.8678C2.26166 12.214 2.02791 12.6942 2 13.2053C2.00247 13.6047 2.13876 13.9925 2.3884 14.3106C2.62582 14.6192 2.95148 14.8536 3.32513 14.9849C3.68436 15.9613 4.33125 16.8145 5.18592 17.4392C6.04059 18.0638 7.06562 18.4326 8.13445 18.5H10.1907Z" />
<path d="M16 2H8C7.46957 2 6.96086 2.21071 6.58579 2.58579C6.21071 2.96086 6 3.46957 6 4H15V9H20V20H6C6 20.5304 6.21071 21.0391 6.58579 21.4142C6.96086 21.7893 7.46957 22 8 22H20C20.5304 22 21.0391 21.7893 21.4142 21.4142C21.7893 21.0391 22 20.5304 22 20V8L16 2Z" />
</svg>

<svg width="24" height="24" viewBox="0 0 24 24" xmlns="http://www.w3.org/2000/svg"><path d="M10.19 18.5v-1.326H8.135a4.235 4.235 0 0 1-2.299-.906 4.015 4.015 0 0 1-1.356-2.013l-.194-.353h-.4a.716.716 0 0 1-.434-.221.704.704 0 0 1-.16-.443.658.658 0 0 1 .343-.574l.342-.188v-1.26a.628.628 0 0 1 .309-.454.675.675 0 0 1 .48-.188h6.854a.681.681 0 0 1 .491.188.639.639 0 0 1 .194.476v3.316H9.448a1.008 1.008 0 0 0-.32-.431.997.997 0 0 0-.49-.221 1.178 1.178 0 0 0-.55.066 1.025 1.025 0 0 0-.433.32.955.955 0 0 0-.195.487.912.912 0 0 0 .08.52.959.959 0 0 0 .355.408c.15.105.329.166.514.177h5.22c.363-.003.71-.143.966-.391.257-.249.402-.584.405-.935v-1.327a1.27 1.27 0 0 0-.107-.51 1.305 1.305 0 0 0-.304-.43 1.364 1.364 0 0 0-.96-.387v-1.325a5.243 5.243 0 0 0-1.693-3.602A5.594 5.594 0 0 0 8.14 5.5a5.594 5.594 0 0 0-3.796 1.473 5.243 5.243 0 0 0-1.693 3.602v1.293c-.39.346-.623.826-.651 1.337.002.4.139.787.388 1.106.238.308.563.543.937.674a5.32 5.32 0 0 0 1.86 2.454c.856.625 1.88.994 2.95 1.061h2.056z"/><path d="M16 2H8a2 2 0 0 0-2 2h9v5h5v11H6a2 2 0 0 0 2 2h12a2 2 0 0 0 2-2V8l-6-6z"/></svg>
